X:1
T:Title
%%score { ( 1 4 5 ) | ( 2 3 6 ) }
L:1/8
M:2/4
K:Ab
V:1 treble nm="Grand Piano"
V:4 treble 
V:5 treble 
V:2 bass 
V:3 bass 
V:6 bass 
V:1
 z2 z[Q:1/4=100] [CE] | [CE]2 [DE][DE] | [CE]2 [CE][CE] | [DF][FA] [EG][DF] |[M:3/8] [CE]2 z | %5
[M:1/8] [CE] |[M:2/4] [CE]2 [DF][DG] | [CA]2 [EA]B | c2 BA |[M:3/8] B2 z |[M:1/8] E | %11
[M:2/4] [CE]2 [DE][DE] | [CE]2 [CE][CE] | [DF]A [A,EG][A,DF] |[M:3/8] [A,CE]2 z |[M:1/8] [A,CE] | %16
[M:2/4] [A,CE][EA] [Ec][_Ge] | [Fd]2 FF | E2 GG |[M:7/16] [CA]-<[CA] z/ z |[M:4/4] [Ec]6 z2 | %21
 E6[K:bass] z2 | B6 z2 | c6[K:bass] z2 | [Ec]6 z2 | E6[K:bass][K:treble] z2 | %26
 e-[Ge-][Ge-][Ge-] eBcB | A6 z2 |] %28
V:2
 z2 z [A,,A,] | [A,,A,]2 [E,G,][E,G,] | [A,,A,]2 [A,,A,][A,,A,] | [D,A,]2 [D,A,][D,A,] | %4
[M:3/8] [A,,A,]2 z |[M:1/8] [A,,A,] |[M:2/4] [A,,A,]2 [A,,A,][A,,A,] | [A,,A,]2 [C,A,][E,G,E] | %8
 [A,E]2 [G,B,E][F,B,=D] |[M:3/8] [E,G,E]2 z |[M:1/8] [E,G,D] |[M:2/4] [A,,A,]2 [E,G,][E,G,] | %12
 [A,,A,]2 [A,,A,][A,,A,] | z F D,D, |[M:3/8] A,,2 z |[M:1/8] A,, |[M:2/4] z C [A,,A,][C,A,] | %17
 [D,A,]2 [D,A,D][D,A,D] | [E,A,C]2 [E,B,D][E,B,D] |[M:7/16] [A,,A,]-<[A,,A,] z/ z | %20
[M:4/4] [A,,A,]A,,A,,A,, z CCD | C4 z4 | E6 z2 | E6 z2 | [A,,A,]A,,A,,A,, z CCD | C4 z4 | %26
 z DDD D2 E,E, | z[K:treble] CDD C2 z2 |] %28
V:3
 x4 | x4 | x4 | x4 |[M:3/8] x3 |[M:1/8] x |[M:2/4] x4 | x4 | x4 |[M:3/8] x3 |[M:1/8] x | %11
[M:2/4] x4 | x4 | [D,A,]2 z2 |[M:3/8] x3 |[M:1/8] x |[M:2/4] A,,2 z2 | x4 | x4 |[M:7/16] x7/2 | %20
[M:4/4] z4 A,,2 z2 | z A,,C,E, A,A,G,F, | [E,G,]E,E,E, z DCD | z2 E,C, A,,2 z2 | z4 A,,2 z2 | %25
 z A,,C,E, A,E,A,F, | E,6 z2 | A,,6[K:treble] z2 |] %28
V:4
 x4 | x4 | x4 | x4 |[M:3/8] x3 |[M:1/8] x |[M:2/4] x4 | x4 | x4 |[M:3/8] x3 |[M:1/8] x | %11
[M:2/4] x4 | x4 | x4 |[M:3/8] x3 |[M:1/8] x |[M:2/4] x4 | x4 | x4 |[M:7/16] x7/2 | %20
[M:4/4] z A,A,A, z AAF | z[K:bass] A,A,A, CCB,A, | z G,G,G, z EAB | z[K:bass] A,A,A, A,2 z2 | %24
 z A,A,A, z AAF | z4[K:bass] C2[K:treble] z2 | .[DG]2 z2 G2 z2 | CEF=E _E2 z2 |] %28
V:5
 x4 | x4 | x4 | x4 |[M:3/8] x3 |[M:1/8] x |[M:2/4] x4 | x4 | x4 |[M:3/8] x3 |[M:1/8] x | %11
[M:2/4] x4 | x4 | x4 |[M:3/8] x3 |[M:1/8] x |[M:2/4] x4 | x4 | x4 |[M:7/16] x7/2 | %20
[M:4/4] z4 A,2 z2 | x[K:bass] x7 | z4 G,2 z2 | x[K:bass] x7 | z4 A,2 z2 | %25
 z[K:bass] A,A,A, z B,[K:treble]CC | x8 | x8 |] %28
V:6
 x4 | x4 | x4 | x4 |[M:3/8] x3 |[M:1/8] x |[M:2/4] x4 | x4 | x4 |[M:3/8] x3 |[M:1/8] x | %11
[M:2/4] x4 | x4 | x4 |[M:3/8] x3 |[M:1/8] x |[M:2/4] x4 | x4 | x4 |[M:7/16] x7/2 |[M:4/4] x8 | x8 | %22
 z4 E,2 z2 | x8 | x8 | x8 | x8 | x[K:treble] x7 |] %28

